X:1
T:New Jerusalem, CMD
T:New Jerusalem, CMD
T:Adrian Vermeulen-Miller & Laszlo Goron, 2002
T:© 2002 AVM &amp; Associates Courtesy of the Cyber Hymnal™
C:Adrian Vermeulen-Miller & Laszlo Goron, 2002
Z:© 2002 AVM & Associates
Z:Courtesy of the Cyber Hymnal™
%%score ( 1 2 ) ( 3 4 )
L:1/8
Q:1/4=112
M:4/4
K:G
V:1 treble 
V:2 treble 
V:3 bass 
V:4 bass 
V:1
 [B,D]2 | [A,D]2 [A,C]2 [G,B,]2 [G,D]2 | [G,E]2 [CG]2 [CF]2 !breath![A,D]2 | %3
 [G,B,]2 [A,D]2 [B,E]2 [B,G]2 | [B,F]6 [^DF]2 | [EG]2 F2 [EG]2 [FA]2 | %6
 [GB]2 [FA]2 [EG]2 !breath![EG]2 | [EA]2 [DF]2 (GF) [^CE]2 | [A,D]6 D2 | [Fc]2 [Dc]2 [DB]2 D2 | %10
 [EA]2 [FA]2 [EG]2 !breath![^DF]2 | [EG]2 F2 [EG]2 [CA]2 | [B,B]6 [DG]2 | [EG]2 [DF]2 (GF) [CE]2 | %14
 [A,D]2 [A,E]2 [G,D]2 !breath![G,D]2 | [CE]2 [CG]2 (cB) [CA]2 | [B,G]6 |] %17
V:2
 x2 | x8 | x8 | x8 | x8 | x2 F2 x4 | x8 | x4 D2 x2 | x6 D2 | x6 D2 | x8 | x2 F2 x4 | x8 | %13
 x4 D2 x2 | x8 | x4 A,2 x2 | x6 |] %17
V:3
 [G,,D,]2 | [F,,D,]2 [F,,D,]2 [G,,D,]2 [B,,D,]2 | C,2 [A,,E,]2 [D,F,]2 !breath![F,,D,]2 | %3
 [G,,D,]2 [F,,F,]2 [E,,G,]2 [E,,E,]2 | [B,,^D,]6 [B,,B,]2 | [E,B,]2 [^D,B,]2 [E,B,]2 [=D,^D]2 | %6
 [G,D]2 [D,D]2 [E,B,]2 !breath![D,B,]2 | [^C,A,]2 [D,A,]2 [B,,G,]2 [C,A,]2 | [D,F,]6 D,2 | %9
 [D,A,]2 [D,F,]2 [D,G,]2 [D,B,]2 | [D,C]2 [^D,C]2 [E,B,]2 !breath![B,,B,]2 | %11
 [E,B,]2 [D,B,]2 [C,G,]2 [C,E,]2 | [G,,D,]6 [B,,G,]2 | [C,G,]2 [C,A,]2 [B,,B,]2 [C,G,]2 | %14
 [C,F,]2 [C,F,]2 [B,,G,]2 !breath![B,,G,]2 | [A,,G,]2 [A,,E,]2 [D,F,]2 [D,F,]2 | [G,,D,]6 |] %17
V:4
 x2 | x8 | C,2 x6 | x8 | x8 | x8 | x8 | x8 | x6 D,2 | x8 | x8 | x8 | x8 | x8 | x8 | x8 | x6 |] %17

